Simply-Cyan-Circles/scalable/notifications/notification-battery-060.svg

<svg xmlns="http://www.w3.org/2000/svg" width="48" height="48" viewBox="0 0 12.7 12.7"><path d="M4.22 6.5h.95L6.8 3.37v2.45h.88l-.34.66H8.5v-4a4.83 4.83 0 0 0-2.1-.58 4.49 4.49 0 0 0-2.2.57z" fill="#1a1a1a" fill-opacity=".5"/><path d="M6.35 1.35a5 5 0 0 0-4.98 4.98 5 5 0 0 0 4.98 5.02 5 5 0 0 0 5.02-5.02 5 5 0 0 0-5.02-4.98zm0 .74a4.3 4.3 0 0 1 4.3 4.3 4.3 4.3 0 0 1-4.3 4.3 4.3 4.3 0 0 1-4.29-4.3 4.3 4.3 0 0 1 4.3-4.3z" fill="teal"/><path d="M4.22 6.5v3.76c1.45 1.05 3.09.73 4.3 0V6.5h-1.2l-.85 1.64-.54 1.04V6.7h-.85l.11-.2z" fill="teal"/></svg>

<?xml version="1.0" encoding="UTF-8" standalone="no"?>
<svg
   xmlns:dc="http://purl.org/dc/elements/1.1/"
   xmlns:cc="http://creativecommons.org/ns#"
   xmlns:rdf="http://www.w3.org/1999/02/22-rdf-syntax-ns#"
   xmlns:svg="http://www.w3.org/2000/svg"
   xmlns="http://www.w3.org/2000/svg"
   xmlns:sodipodi="http://sodipodi.sourceforge.net/DTD/sodipodi-0.dtd"
   xmlns:inkscape="http://www.inkscape.org/namespaces/inkscape"
   width="48"
   height="48"
   viewBox="0 0 12.7 12.7"
   version="1.1"
   id="svg8"
   sodipodi:docname="notification-battery-060.svg"
   inkscape:version="0.92.4 (5da689c313, 2019-01-14)">
  <metadata
     id="metadata14">
    <rdf:RDF>
      <cc:Work
         rdf:about="">
        <dc:format>image/svg+xml</dc:format>
        <dc:type
           rdf:resource="http://purl.org/dc/dcmitype/StillImage" />
        <dc:title></dc:title>
      </cc:Work>
    </rdf:RDF>
  </metadata>
  <defs
     id="defs12" />
  <sodipodi:namedview
     pagecolor="#ffffff"
     bordercolor="#666666"
     borderopacity="1"
     objecttolerance="10"
     gridtolerance="10"
     guidetolerance="10"
     inkscape:pageopacity="0"
     inkscape:pageshadow="2"
     inkscape:window-width="1087"
     inkscape:window-height="480"
     id="namedview10"
     showgrid="false"
     inkscape:zoom="4.9166667"
     inkscape:cx="2.1355932"
     inkscape:cy="24"
     inkscape:window-x="0"
     inkscape:window-y="25"
     inkscape:window-maximized="0"
     inkscape:current-layer="svg8" />
  <path
     d="M 4.22,6.5 H 5.17 L 6.8,3.37 V 5.82 H 7.68 L 7.34,6.48 H 8.5 v -4 A 4.83,4.83 0 0 0 6.4,1.9 4.49,4.49 0 0 0 4.2,2.47 Z"
     id="path2"
     inkscape:connector-curvature="0"
     style="fill:#1a1a1a;fill-opacity:0.5" />
  <path
     d="M 6.35,1.35 A 5,5 0 0 0 1.37,6.33 5,5 0 0 0 6.35,11.35 5,5 0 0 0 11.37,6.33 5,5 0 0 0 6.35,1.35 Z m 0,0.74 a 4.3,4.3 0 0 1 4.3,4.3 4.3,4.3 0 0 1 -4.3,4.3 4.3,4.3 0 0 1 -4.29,-4.3 4.3,4.3 0 0 1 4.3,-4.3 z"
     id="path4"
     inkscape:connector-curvature="0"
     style="fill:#008080" />
  <path
     d="m 4.22,6.5 v 3.76 c 1.45,1.05 3.09,0.73 4.3,0 V 6.5 H 7.32 L 6.47,8.14 5.93,9.18 V 6.7 H 5.08 L 5.19,6.5 Z"
     id="path6"
     inkscape:connector-curvature="0"
     style="fill:#008080" />
</svg>
